packages/synapse-interface/assets/chains/optimism.svg

<svg fill="none" height="48" viewBox="0 0 48 48" width="48" xmlns="http://www.w3.org/2000/svg"><path d="m24 48c13.2548 0 24-10.7452 24-24s-10.7452-24-24-24-24 10.7452-24 24 10.7452 24 24 24z" fill="#ff0420"/><g clip-rule="evenodd" fill="#fff" fill-rule="evenodd"><path d="m13.486 29.3563c1.0302.7077 2.2624 1.0616 3.5111 1.0084 1.7285 0 3.1086-.4021 4.1402-1.2063 1.0327-.8163 1.7588-2.0466 2.1785-3.6909.2518-1.0083.4678-2.0466.648-3.1149.0538-.3153.0839-.6343.0901-.9541.0215-.7684-.1987-1.5242-.6295-2.1608-.4272-.6179-1.029-1.0943-1.7284-1.3684-.7879-.3228-1.6332-.4821-2.4846-.4682-3.3967 0-5.5032 1.6505-6.3195 4.9515-.288 1.211-.51 2.2493-.6661 3.1149-.0545.3213-.0846.6463-.0901.9722-.0287.5592.0792 1.1171.3145 1.6253.2353.5081.5908.9513 1.0358 1.2913zm5.474-2.1785c-.4787.4-1.0871.6113-1.7107.5941-1.1525 0-1.7288-.5522-1.7288-1.6564-.0009-.2538.0232-.5071.072-.7562.2159-1.1644.4319-2.1486.648-2.9528.1363-.6972.4892-1.3337 1.0084-1.8185.4865-.3984 1.0998-.6092 1.7284-.5941 1.1402-.0003 1.7103.5458 1.7103 1.6383.0004.2598-.0237.519-.072.7743-.1435.8406-.3533 1.8249-.6295 2.9528-.1372.7009-.4971 1.3387-1.0261 1.8185z"/><path d="m24.7159 30.1569c.053.0218.1102.0314.1674.028l2.4496.0004c.1249-.0019.2455-.0463.3419-.1259.1043-.0791.1747-.195.1967-.3242l.8282-3.943h2.4303c1.5724 0 2.8088-.3301 3.709-.9903.9704-.7546 1.6199-1.8479 1.8185-3.061.0701-.3073.1064-.6213.1082-.9364.0215-.4712-.0801-.9398-.2948-1.3598-.2147-.4199-.5351-.7767-.9296-1.0351-.9597-.5947-2.0774-.8835-3.205-.8282h-4.7894c-.1251.0019-.2458.0463-.3423.1259-.1044.0791-.1747.1951-.1967.3242l-2.4846 11.7033c-.0254.111-.006.2275.0539.3242.0383.0427.0857.0761.1387.0979zm7.8557-7.264c-.3807.2788-.8428.4243-1.3145.4139h-2.0703l.6842-3.2227h2.1604c.3717-.0365.7437.0661 1.0441.288.1061.1015.1885.2251.2414.3621.0529.1369.075.2838.0647.4303-.0024.1813-.0204.362-.0539.5402-.0947.4766-.3645.9005-.7561 1.1882z"/></g></svg>

<svg width="48" height="48" viewBox="0 0 48 48" fill="none" xmlns="http://www.w3.org/2000/svg">
<path d="M24 48C37.2548 48 48 37.2548 48 24C48 10.7452 37.2548 0 24 0C10.7452 0 0 10.7452 0 24C0 37.2548 10.7452 48 24 48Z" fill="#FF0420"/>
<path fill-rule="evenodd" clip-rule="evenodd" d="M13.486 29.3563C14.5162 30.064 15.7484 30.4179 16.9971 30.3647C18.7256 30.3647 20.1057 29.9626 21.1373 29.1584C22.17 28.3421 22.8961 27.1118 23.3158 25.4675C23.5676 24.4592 23.7836 23.4209 23.9638 22.3526C24.0176 22.0373 24.0477 21.7183 24.0539 21.3985C24.0754 20.6301 23.8552 19.8743 23.4244 19.2377C22.9972 18.6198 22.3954 18.1434 21.696 17.8693C20.9081 17.5465 20.0628 17.3872 19.2114 17.4011C15.8147 17.4011 13.7082 19.0516 12.8919 22.3526C12.6039 23.5636 12.3819 24.6019 12.2258 25.4675C12.1713 25.7888 12.1412 26.1138 12.1357 26.4397C12.107 26.9989 12.2149 27.5568 12.4502 28.065C12.6855 28.5731 13.041 29.0163 13.486 29.3563ZM18.96 27.1778C18.4813 27.5778 17.8729 27.7891 17.2493 27.7719C16.0968 27.7719 15.5205 27.2197 15.5205 26.1155C15.5196 25.8617 15.5437 25.6084 15.5925 25.3593C15.8084 24.1949 16.0244 23.2107 16.2405 22.4065C16.3768 21.7093 16.7297 21.0728 17.2489 20.588C17.7354 20.1896 18.3487 19.9788 18.9773 19.9939C20.1175 19.9936 20.6876 20.5397 20.6876 21.6322C20.688 21.892 20.6639 22.1512 20.6156 22.4065C20.4721 23.2471 20.2623 24.2314 19.9861 25.3593C19.8489 26.0602 19.489 26.698 18.96 27.1778Z" fill="white"/>
<path fill-rule="evenodd" clip-rule="evenodd" d="M24.7159 30.1569C24.7689 30.1787 24.8261 30.1883 24.8833 30.1849L27.3329 30.1853C27.4578 30.1834 27.5784 30.139 27.6748 30.0594C27.7791 29.9803 27.8495 29.8644 27.8715 29.7352L28.6997 25.7922H31.13C32.7024 25.7922 33.9388 25.4621 34.839 24.8019C35.8094 24.0473 36.4589 22.954 36.6575 21.7409C36.7276 21.4336 36.7639 21.1196 36.7657 20.8045C36.7872 20.3333 36.6856 19.8647 36.4709 19.4447C36.2562 19.0248 35.9358 18.668 35.5413 18.4096C34.5816 17.8149 33.4639 17.5261 32.3363 17.5814H27.5469C27.4218 17.5833 27.3011 17.6277 27.2046 17.7073C27.1002 17.7864 27.0299 17.9024 27.0079 18.0315L24.5233 29.7348C24.4979 29.8458 24.5173 29.9623 24.5772 30.059C24.6155 30.1017 24.6629 30.1351 24.7159 30.1569ZM32.5716 22.8929C32.1909 23.1717 31.7288 23.3172 31.2571 23.3068H29.1868L29.871 20.0841H32.0314C32.4031 20.0476 32.7751 20.1502 33.0755 20.3721C33.1816 20.4736 33.264 20.5972 33.3169 20.7342C33.3698 20.8711 33.3919 21.018 33.3816 21.1645C33.3792 21.3458 33.3612 21.5265 33.3277 21.7047C33.233 22.1813 32.9632 22.6052 32.5716 22.8929Z" fill="white"/>
</svg>
